X:1
T:Title
%%score { ( 1 3 ) | ( 2 4 ) }
L:1/8
Q:1/4=100
M:4/4
K:F
V:1 treble nm="Grand Piano"
V:3 treble 
V:2 bass 
V:4 bass 
V:1
 A3 A BA_A=A | F4 C2 z2 | E3 F [EG][EG][DF][EG] | A6 z2 | A3 A BA_A=A | F4 C2 z2 | %6
w: W.~S.~Nickle * * * * *||||||
 E3 F GF [FA]>[EG] | F6 z2 | A4 z2 _E2 | [DB]4 D2 z2 | C3 C FF E>F | [EG]6 z2 | A4 z2 _E2 | %13
w: |||||||
 [DB]4 D2 z2 | C3 F GF [FA]>[EG] | F6 z2 |] %16
w: |||
V:2
 [F,CF]3 [F,CF] [F,DF][F,CF][F,=B,F][F,CF] | [F,A,C]4 [F,A,]2 z2 | %2
 [C,G,C]3 [C,A,C] [C,C][C,C][C,C][C,C] | [F,CF]6 z2 | [F,CF]3 [F,CF] [F,DF][F,CF][F,=B,F][F,CF] | %5
 [F,A,C]4 [F,A,]2 z2 | [C,G,C]3 [C,A,C] [C,B,C][C,A,C] [C,C]>[C,B,] | [F,A,]6 z2 | [F,CF]4 C2 z2 | %9
 [B,,F,]4 [B,,F,B,]2 z2 | [F,A,]3 [F,A,] [F,A,C][A,C] [G,B,C]>[F,A,C] | [C,C]6 z2 | [F,CF]4 C2 z2 | %13
 [B,,F,]4 [B,,F,B,]2 z2 | [C,F,A,]3 [C,A,C] [C,B,C][C,A,C] [C,C]>[C,B,] | [F,A,]6 z2 |] %16
V:3
 x8 | x8 | x8 | x8 | x8 | x8 | x8 | x8 | z4 F4 | x8 | x8 | x8 | z4 F4 | x8 | x8 | x8 |] %16
V:4
 x8 | x8 | x8 | x8 | x8 | x8 | x8 | x8 | z4 [F,A,]4 | x8 | x8 | x8 | z4 [F,A,]4 | x8 | x8 | x8 |] %16

